X:1
T:Bourree Valse
C:Traditionnel
D:"Musiques pour vielle  roue en Auvergne et Bourbonnais", Patrick Bouffard
Z:Dave Holland <dave@biff.org.uk>
M:3/4
L:1/8
K:G
GFGABc|dGdGeG|cFcFdF|TB2GBGD|
GFGABc|d2DEFG|AGFGAF|1G2GDEF:|2G2GDEG||
B3AG2|TB2G2B2|BAGABc|d2G2Bd|c2ABcA|TB2GABc|AGFAGF|E3 F/E/ D2|
B3AG2|TB2G2B2|BAGABc|d2G2Bd|c2ABcA|TB2GABc|AGFAGF|1G2GDEG:|2GDEFGA||
